src/assets/images/icon-email.svg

<svg height="24" viewBox="0 0 24 24" width="24" xmlns="http://www.w3.org/2000/svg"><path d="m19.5778817 5.90557908c-.6055103-1.13449212-1.8006982-1.90557908-3.1778817-1.90557908h-8.8c-1.46469368 0-2.72508657.87471565-3.28729475 2.13026304l7.67208225 4.68849466zm.4221183 2.10903602-7.9847875 5.1666272-8.0152125-4.89818546v8.11694316c0 1.99 1.61 3.6 3.6 3.6h8.8c1.9882251 0 3.6-1.6117749 3.6-3.6zm-12.2-6.0146151h8.4c3.2 0 5.8 2.6 5.8 5.8v8.4c0 3.2032515-2.5967485 5.8-5.8 5.8h-8.4c-3.2 0-5.8-2.6-5.8-5.8v-8.4c0-3.20325155 2.59674845-5.8 5.8-5.8z" fill="#595055" fill-rule="evenodd"/></svg>

<svg xmlns="http://www.w3.org/2000/svg" width="24" height="24" viewBox="0 0 24 24">
  <path fill="#595055" fill-rule="evenodd" d="M19.5778817,5.90557908 C18.9723714,4.77108696 17.7771835,4 16.4,4 L7.6,4 C6.13530632,4 4.87491343,4.87471565 4.31270525,6.13026304 L11.9847875,10.8187577 L19.5778817,5.90557908 Z M20,8.0146151 L12.0152125,13.1812423 L4,8.28305684 L4,16.4 C4,18.39 5.61,20 7.6,20 L16.4,20 C18.3882251,20 20,18.3882251 20,16.4 L20,8.0146151 Z M7.8,2 L16.2,2 C19.4,2 22,4.6 22,7.8 L22,16.2 C22,19.4032515 19.4032515,22 16.2,22 L7.8,22 C4.6,22 2,19.4 2,16.2 L2,7.8 C2,4.59674845 4.59674845,2 7.8,2 Z"/>
</svg>
